icon/pk/folder-upload.svg

<svg viewBox="0 0 48 48" fill="none" xmlns="http://www.w3.org/2000/svg" height="1em" width="1em">
  <path d="M5 8C5 6.89543 5.89543 6 7 6H19L24 12H41C42.1046 12 43 12.8954 43 14V40C43 41.1046 42.1046 42 41 42H7C5.89543 42 5 41.1046 5 40V8Z" fill="#2F88FF" stroke="black" stroke-width="4" stroke-linejoin="round"/>
  <path d="M30 25.9867L24 20L18 26" stroke="white" stroke-width="4" stroke-linecap="round" stroke-linejoin="round"/>
  <path d="M24 20V34" stroke="white" stroke-width="4" stroke-linecap="round" stroke-linejoin="round"/>
</svg>

<svg width="48" height="48" fill="none" xmlns="http://www.w3.org/2000/svg"><path d="M5 8a2 2 0 0 1 2-2h12l5 6h17a2 2 0 0 1 2 2v26a2 2 0 0 1-2 2H7a2 2 0 0 1-2-2V8Z" fill="#2F88FF" stroke="#000" stroke-width="4" stroke-linejoin="round"/><path d="M30 25.987 24 20l-6 6M24 20v14" stroke="#fff" stroke-width="4" stroke-linecap="round" stroke-linejoin="round"/></svg>
